X: 1616
T: Annaghbeg, The
R: polka
M: 2/4
K: Dmajor
|:A/B/A/F/ Ad|A/B/A/F/ Ad|ce B>c|BA FA|
A/B/A/F/ Ad|A/B/A/F/ Ad|ce B>c|1 df d2:|2 df de||
|:f2 ed|fe e2|dc Bc|BA FA|
[1f2 ed|fe e2|dc Bc|df de:|
[2A/B/A/F/ Ad|A/B/A/F/ Ad|ce B>c|df d2||

